symbols/web/nest_wifi_gale/materialsymbolsoutlined/nest_wifi_gale_wght100_20px.svg

<svg xmlns="http://www.w3.org/2000/svg" height="20" width="20"><path d="m4.917 15.333-.209-.666h-.354q-.583 0-.979-.438-.396-.437-.354-1L3.5 5.896q.042-.521.427-.875t.906-.354h10.334q.521 0 .906.354t.427.875l.479 7.333q.042.563-.354 1-.396.438-.979.438h-.354l-.209.666ZM3.958 9h12.084l-.209-3.042q-.021-.27-.208-.448-.187-.177-.458-.177H4.833q-.271 0-.458.177-.187.178-.208.448Zm.396 5h11.292q.292 0 .489-.208.198-.209.177-.5l-.229-3.625H3.917l-.229 3.625q-.021.291.177.5.197.208.489.208Z"/></svg>

<svg xmlns="http://www.w3.org/2000/svg" height="20" width="20"><path d="M4.917 15.333 4.708 14.667H4.354Q3.771 14.667 3.375 14.229Q2.979 13.792 3.021 13.229L3.5 5.896Q3.542 5.375 3.927 5.021Q4.312 4.667 4.833 4.667H15.167Q15.688 4.667 16.073 5.021Q16.458 5.375 16.5 5.896L16.979 13.229Q17.021 13.792 16.625 14.229Q16.229 14.667 15.646 14.667H15.292L15.083 15.333ZM3.958 9H16.042L15.833 5.958Q15.812 5.688 15.625 5.51Q15.438 5.333 15.167 5.333H4.833Q4.562 5.333 4.375 5.51Q4.188 5.688 4.167 5.958ZM4.354 14H15.646Q15.938 14 16.135 13.792Q16.333 13.583 16.312 13.292L16.083 9.667H3.917L3.688 13.292Q3.667 13.583 3.865 13.792Q4.062 14 4.354 14Z"/></svg>
